X: 10
T:Slip Jig
% Nottingham Music Database
Y:PAAB
S:Anon
M:9/8
K:D
P:P
A|
P:A
"D"F2A ABA "G"G3|"Em"G2e "E7"e2d "A7"cBA|"D"F2A ABA "G"G3|\
"D"A2d "A7"d2A "D"FED:|
P:B
"D"faf f2d f2a|"G"b2e "E7"e2d "A7"cBA|"D"faf f2d f2a|"D"A2d "A7"d2A "D"FED|
"D"faf f2d f2a|"G"b2e "E7"e2d "A7"cBA|"D"faf "A7"efe "D"d3|\
"D"A2d "A7"d2A "D"FED||


